packages/ui-icons/svg/Line/toggle-end.svg

<svg viewBox="0 0 1920 1920" version="1.1" xmlns="http://www.w3.org/2000/svg">
    <path d="M1072.94118,113 C1540.06588,113 1920,492.934118 1920,960.058824 C1920,1427.18353 1540.06588,1807.11765 1072.94118,1807.11765 C816.790588,1807.11765 577.694118,1693.27294 416.865882,1494.83529 L416.865882,1494.83529 L504.734118,1423.68235 C643.990588,1595.57882 851.011765,1694.17647 1072.94118,1694.17647 C1477.72235,1694.17647 1807.05882,1364.84 1807.05882,960.058824 C1807.05882,555.277647 1477.72235,225.941176 1072.94118,225.941176 C851.011765,225.941176 643.990588,324.538824 504.734118,496.435294 L504.734118,496.435294 L416.865882,425.282353 C577.694118,226.844706 816.790588,113 1072.94118,113 Z M943.442824,524.885176 L1378.60518,960.047529 L943.442824,1395.20988 L863.593412,1315.47341 L1162.54871,1016.51812 L0.0451764706,1016.51812 L0.0451764706,903.576941 L1162.54871,903.576941 L863.593412,604.734588 L943.442824,524.885176 Z" stroke="none" stroke-width="1" fill-rule="evenodd"/>
</svg>

<svg viewBox="0 0 1920 1920" version="1.1" xmlns="http://www.w3.org/2000/svg">
    <path d="M863.593 604.735l79.85-79.85 435.162 435.163-435.162 435.162-79.85-79.737 298.956-298.955H.045V903.577H1162.55L863.593 604.735zM1072.941 113C1540.066 113 1920 492.934 1920 960.059c0 467.125-379.934 847.059-847.059 847.059-256.15 0-495.247-113.845-656.075-312.283l87.868-71.153c139.257 171.897 346.278 270.494 568.207 270.494 404.781 0 734.118-329.336 734.118-734.117 0-404.781-329.337-734.118-734.118-734.118-221.93 0-428.95 98.598-568.207 270.494l-87.868-71.153C577.694 226.845 816.79 113 1072.94 113z" stroke="none" stroke-width="1" fill-rule="evenodd"/>
</svg>
